icons/openai.svg

<svg width="25" height="24" viewBox="0 0 25 24" fill="none" xmlns="http://www.w3.org/2000/svg">
<path d="M9.20508 8.73596V6.45595C9.20508 6.26393 9.27651 6.11987 9.44292 6.02398L13.9861 3.38398C14.6046 3.024 15.342 2.85608 16.103 2.85608C18.9572 2.85608 20.7651 5.08813 20.7651 7.46403C20.7651 7.63199 20.7651 7.82402 20.7412 8.01604L16.0316 5.23198C15.7462 5.06407 15.4607 5.06407 15.1753 5.23198L9.20508 8.73596ZM19.8135 17.616V12.1679C19.8135 11.8318 19.6707 11.5918 19.3854 11.4239L13.4152 7.9199L15.3656 6.79183C15.5321 6.69594 15.6748 6.69594 15.8413 6.79183L20.3845 9.43183C21.6928 10.1999 22.5728 11.8318 22.5728 13.4157C22.5728 15.2397 21.5025 16.9198 19.8135 17.6158V17.616ZM7.80173 12.8161L5.85129 11.6641C5.68488 11.5682 5.61345 11.4241 5.61345 11.2321V5.95216C5.61345 3.38423 7.56388 1.4401 10.2042 1.4401C11.2033 1.4401 12.1307 1.77617 12.9159 2.37615L8.23008 5.11224C7.94474 5.28015 7.80197 5.52014 7.80197 5.85627V12.8163L7.80173 12.8161ZM12 15.264L9.20508 13.68V10.3202L12 8.73621L14.7947 10.3202V13.68L12 15.264ZM13.7958 22.5601C12.7967 22.5601 11.8693 22.224 11.0841 21.6241L15.7699 18.888C16.0553 18.72 16.198 18.4801 16.198 18.1439V11.1839L18.1724 12.3359C18.3388 12.4318 18.4102 12.5758 18.4102 12.7679V18.0478C18.4102 20.6158 16.4359 22.5599 13.7958 22.5599V22.5601ZM8.1585 17.2081L3.61528 14.5682C2.30696 13.8 1.427 12.1682 1.427 10.5842C1.427 8.73621 2.52116 7.08023 4.20985 6.38417V11.8561C4.20985 12.1922 4.35267 12.4322 4.63801 12.6002L10.5846 16.08L8.63415 17.2081C8.46773 17.304 8.32492 17.304 8.1585 17.2081ZM7.89701 21.1441C5.20918 21.1441 3.23491 19.1041 3.23491 16.5841C3.23491 16.3921 3.25875 16.2 3.2824 16.008L7.96819 18.7441C8.25353 18.9121 8.53912 18.9121 8.82446 18.7441L14.7947 15.2642V17.5443C14.7947 17.7363 14.7233 17.8803 14.5568 17.9762L10.0137 20.6162C9.39519 20.9762 8.65779 21.1441 7.89676 21.1441H7.89701ZM13.7958 24C16.6739 24 19.0762 21.9361 19.6234 19.2C22.2874 18.5039 24 15.9839 24 13.416C24 11.7359 23.2865 10.104 22.002 8.92799C22.121 8.42394 22.1923 7.9199 22.1923 7.41611C22.1923 3.98416 19.4331 1.41599 16.2458 1.41599C15.6037 1.41599 14.9852 1.51187 14.3668 1.72801C13.2962 0.671955 11.8215 0 10.2042 0C7.32608 0 4.92384 2.06388 4.37656 4.79997C1.71258 5.49603 0 8.01604 0 10.584C0 12.2641 0.713497 13.8959 1.99797 15.072C1.87905 15.576 1.80766 16.08 1.80766 16.5839C1.80766 20.0158 4.56687 22.584 7.75419 22.584C8.3963 22.584 9.01477 22.4881 9.63323 22.2719C10.7035 23.328 12.1782 24 13.7958 24Z" fill="#464649"/>
</svg>

<svg xmlns="http://www.w3.org/2000/svg" fill="none" viewBox="0 0 25 24"><path fill="#62757E" d="M9.205 8.736v-2.28c0-.192.072-.336.238-.432l4.543-2.64c.619-.36 1.356-.528 2.117-.528 2.854 0 4.662 2.232 4.662 4.608 0 .168 0 .36-.024.552l-4.71-2.784a.79.79 0 0 0-.856 0zm10.609 8.88v-5.448a.8.8 0 0 0-.429-.744l-5.97-3.504 1.95-1.128a.43.43 0 0 1 .476 0l4.544 2.64c1.308.768 2.188 2.4 2.188 3.984 0 1.824-1.07 3.504-2.76 4.2m-12.012-4.8-1.95-1.152c-.167-.096-.239-.24-.239-.432v-5.28c0-2.568 1.95-4.512 4.591-4.512 1 0 1.927.336 2.712.936L8.23 5.112a.8.8 0 0 0-.428.744zM12 15.264 9.205 13.68v-3.36L12 8.736l2.795 1.584v3.36zm1.796 7.296c-1 0-1.927-.336-2.712-.936l4.686-2.736a.8.8 0 0 0 .428-.744v-6.96l1.974 1.152c.167.096.238.24.238.432v5.28c0 2.568-1.974 4.512-4.614 4.512m-5.637-5.352-4.544-2.64c-1.308-.768-2.188-2.4-2.188-3.984 0-1.848 1.094-3.504 2.783-4.2v5.472c0 .336.143.576.428.744l5.947 3.48-1.95 1.128a.43.43 0 0 1-.476 0m-.262 3.936c-2.688 0-4.662-2.04-4.662-4.56 0-.192.024-.384.047-.576l4.686 2.736a.79.79 0 0 0 .856 0l5.97-3.48v2.28c0 .192-.07.336-.237.432l-4.543 2.64c-.619.36-1.356.528-2.117.528M13.796 24c2.878 0 5.28-2.064 5.827-4.8C22.287 18.504 24 15.984 24 13.416c0-1.68-.713-3.312-1.998-4.488a6.6 6.6 0 0 0 .19-1.512c0-3.432-2.759-6-5.946-6a5.6 5.6 0 0 0-1.88.312A5.94 5.94 0 0 0 10.205 0c-2.878 0-5.28 2.064-5.827 4.8C1.713 5.496 0 8.016 0 10.584c0 1.68.713 3.312 1.998 4.488a6.6 6.6 0 0 0-.19 1.512c0 3.432 2.759 6 5.946 6a5.6 5.6 0 0 0 1.88-.312A5.93 5.93 0 0 0 13.795 24"/></svg>
